assets/images/vector/icons/earth_icon.svg

<svg fill="none" height="59" viewBox="0 0 59 59" width="59" xmlns="http://www.w3.org/2000/svg"><g stroke="#111" stroke-linecap="round" stroke-linejoin="round" stroke-width="10"><path d="m18.4028 32.1233c-.1467-.2167-2.85-4.41-.8-8.5833.2233-.4567 1.6133-3.1634 4.48-3.96 4.2433-1.1767 7.3433 3.0633 9.35 1.7833 2.2433-1.43-.9-7.1867 1.69-10.43 1.9733-2.47 6.32-2.28666 9.61-1.77"/><path d="m18.4043 32.1233c5.2967-1.4633 8.7033-.7467 10.9733.5833 3.13 1.8334 3.3534 4.3934 6.04 4.8967 3.8767.7267 6.1467-4.09 9.5834-3.4367 1.5966.3034 3.54 1.8067 5.2266 6.8567"/><path d="m27.8366 53.2665c.4933-1.93.78-4.4766-.5434-6.46-1.41-2.1166-3.4033-1.7233-4.74-3.94-1.3933-2.3133.0467-3.95-.99-6.8233-.9733-2.6967-3.2033-3.9133-4.8766-5.1367-2.7867-2.0366-6.2467-5.7033-8.96004-12.8633"/><path d="m29.1667 53.3333c13.3468 0 24.1666-10.8198 24.1666-24.1666 0-13.3469-10.8198-24.1667-24.1666-24.1667-13.3469 0-24.1667 10.8198-24.1667 24.1667 0 13.3468 10.8198 24.1666 24.1667 24.1666z"/></g></svg>

<svg width="59" height="59" viewBox="0 0 59 59" fill="none" xmlns="http://www.w3.org/2000/svg">
<path d="M18.4028 32.1233C18.2561 31.9066 15.5528 27.7133 17.6028 23.54C17.8261 23.0833 19.2161 20.3766 22.0828 19.58C26.3261 18.4033 29.4261 22.6433 31.4328 21.3633C33.6761 19.9333 30.5328 14.1766 33.1228 10.9333C35.0961 8.4633 39.4428 8.64664 42.7328 9.1633" stroke="#111111" stroke-width="10" stroke-linecap="round" stroke-linejoin="round"/>
<path d="M18.4043 32.1233C23.701 30.66 27.1076 31.3766 29.3776 32.7066C32.5076 34.54 32.731 37.1 35.4176 37.6033C39.2943 38.33 41.5643 33.5133 45.001 34.1666C46.5976 34.47 48.541 35.9733 50.2276 41.0233" stroke="#111111" stroke-width="10" stroke-linecap="round" stroke-linejoin="round"/>
<path d="M27.8366 53.2665C28.3299 51.3365 28.6166 48.7899 27.2932 46.8065C25.8832 44.6899 23.8899 45.0832 22.5532 42.8665C21.1599 40.5532 22.5999 38.9165 21.5632 36.0432C20.5899 33.3465 18.3599 32.1299 16.6866 30.9065C13.8999 28.8699 10.4399 25.2032 7.72656 18.0432" stroke="#111111" stroke-width="10" stroke-linecap="round" stroke-linejoin="round"/>
<path d="M29.1667 53.3333C42.5135 53.3333 53.3333 42.5135 53.3333 29.1667C53.3333 15.8198 42.5135 5 29.1667 5C15.8198 5 5 15.8198 5 29.1667C5 42.5135 15.8198 53.3333 29.1667 53.3333Z" stroke="#111111" stroke-width="10" stroke-linecap="round" stroke-linejoin="round"/>
</svg>
